!!!COM:	Bach, Johann Sebastian
!!!OMV:	Was Gott tut, das ist wohlgetan
!!!OTL:	Was Gott tut, das ist wohlgetan
**kern	**fb	**kern	**kern	**kern	**kern	**kern	**kern
*part7	*part7	*part6	*part5	*part4	*part3	*part2	*part1
*staff7	*	*staff6	*staff5	*staff4	*staff3	*staff2	*staff1
*I"Continuo	*	*I"Voice	*I"Voice	*I"Voice	*I"Voice	*I"Horn in G	*I"Horn in G
*I'Cont.	*	*I'V	*I'V	*I'V	*I'V	*I'G Hn.	*I'G Hn.
*clefF4	*	*clefF4	*clefGv2	*clefG2	*clefG2	*clefG2	*clefG2
*Trd0c0	*	*	*	*	*	*	*
*k[f#]	*	*k[f#]	*k[f#]	*k[f#]	*k[f#]	*k[f#]	*k[f#]
*M4/4	*	*M4/4	*M4/4	*M4/4	*M4/4	*M4/4	*M4/4
4GG	.	4GG	8GL	8BL	4d	4G	4d
.	.	.	8AJ	8cJ	.	.	.
=2	=2	=2	=2	=2	=2	=2	=2
4G	.	4G	4B	4d	4g	4B	4g
4F#	6	4F#	4A	4d	4a	4d	4a
8EL	.	8EL	4e	4g	4b	4g	4b
8DJ	.	8DJ	.	.	.	.	.
4C	.	4C	8eL	4g	8cc	4g	8cc
.	.	.	8cJ	.	16ddLL	.	16ddLL
.	.	.	.	.	16eeJJ	.	16eeJJ
=3	=3	=3	=3	=3	=3	=3	=3
4D	6 4	4D	8BL	8gL	4dd	16gLL	4dd
.	.	.	.	.	.	16aJ	.
.	.	.	8GJ	8eJ	.	8bJ	.
4DD	5 3	4D	4A	4f#	8ccL	8aL	8ccL
.	.	.	.	.	8bJ	8dJ	8bJ
4GG;	.	4GG;	4G;	4d;	4b;	4g;	4b;
4C	8	4C	4G	8cL	4ee	16gLL	4ee
.	.	.	.	.	.	16aJ	.
.	7	.	.	8BJ	.	8bJ	.
=4	=4	=4	=4	=4	=4	=4	=4
4D	.	4D	4F#	4A	4dd	8aL	4dd
.	.	.	.	.	.	8d	.
8EL	6	8EL	8GL	4e	4cc	8g	4cc
8F#J	7 5	8F#J	8AJ	.	.	8dJ	.
4G	.	4G	8BL	4d	4b	4G	4b
.	.	.	8AJ	.	.	.	.
4C	6 5	4C	4G	4e	16aLL	4r	16aLL
.	.	.	.	.	16bJ	.	16bJ
.	.	.	.	.	8ccJ	.	8ccJ
=	=	=	=	=	=	=	=
4D	6 4	2D	4G	2d	4b	8r	4b
.	.	.	.	.	.	16dLL	.
.	.	.	.	.	.	16BJJ	.
4DD	5 3	.	4F#	.	8aL	8dL	8aL
.	.	.	.	.	8gJ	8dJ	8gJ
4GG;	.	4GG;	4B;	4d;	4g;	4B;	4g;
=5:|!	=5:|!	=5:|!	=5:|!	=5:|!	=5:|!	=5:|!	=5:|!
4G	.	4G	4B	4g	4dd	4r	4dd
=6	=6	=6	=6	=6	=6	=6	=6
!!pagebreak:original
4C	8	4C	8cL	4g	4ee	1r;	4ee
.	7	.	8BJ	.	.	.	.
4C#X	6	4C#X	4A	8aL	4ee	.	4ee
.	5	.	.	8gJ	.	.	.
4D;	.	4D;	4d;	4f#;	4a;	.	4a;
8DL	.	8DL	4d	4f#	4a	.	4a
8CnJ	.	8CnJ	.	.	.	.	.
=7	=7	=7	=7	=7	=7	=7	=7
8BBL	6	8BBL	8dL	8gL	4dd	1r;	4dd
8AAJ	._	8AAJ	8cJ	8aJ	.	.	.
4BB	.	4BB	4d	8gL	4dd	.	4dd
.	nr5	.	.	8fnJ	.	.	.
4C;	.	4C;	4c;	4e;	4g;	.	4g;
4GG	.	4GG	4d	4g	4b	.	4b
=8	=8	=8	=8	=8	=8	=8	=8
4.D	.	4D	8dL	8gL	4a	2r	4a
.	.	.	8AJ	8f#J	.	.	.
.	.	8DL	8BL	4e	4g	.	4g
8C#X	6 5	8C#XJ	8AJ	.	.	.	.
8DL	9	8DL	4A	8eL	4f#	8r	4d
8F#J	6	8F#J	.	8dJ	.	8aL	.
8BBL	6	8BL	8GL	4d	8gL	8b	[4dd
8AAJ	6 4	8AJ	8AJ	.	8f#J	8dJ	.
=9	=9	=9	=9	=9	=9	=9	=9
8GGL	6 5	8GL	4B	4d	2e	4g	4dd]
8EEJ	.	8EJ	.	.	.	.	.
4AA	8 #	4A	8AL	4c#X	.	4a	4cc#X
.	7	.	8GJ	.	.	.	.
4DD;	.	4D;	4F#;	4A;	4d;	4a;	4dd;
4BB	8	4BB	4f#	8BL	4dd	[4b	4dd
.	7	.	.	8AJ	.	.	.
=10	=10	=10	=10	=10	=10	=10	=10
8EL	6	8EL	4e	8GL	4cc	8b]	4cc
8F#J	7 5	8F#J	.	8AJ	.	4a	.
[4G	5	[4G	8dL	8BL	4b	.	4b
.	6	.	8eJ	8cnJ	.	8g	.
8GL]	5 2	8GL]	4A	4d	4a	4d	4a
8F#J	6	8F#J	.	.	.	.	.
8GL	.	8GL	4G	8dL	8bL	4r	8bL
8EJ	6	8EJ	.	8eJ	8ccJ	.	8ccJ
=11	=11	=11	=11	=11	=11	=11	=11
!!pagebreak:original
8CL	6 5	8CL	4G	4e	2a	8r	2a
8AA	.	8AAJ	.	.	.	8g	.
8D	.	4D	4F#	4d	.	16dLL	.
.	.	.	.	.	.	16BJ	.
8DDJ	.	.	.	.	.	8dJ	.
4GG;	.	4GG;	4B;	4d;	4g;	4B;	4g;
=||	=||	=||	=||	=||	=||	=||	=||
*-	*-	*-	*-	*-	*-	*-	*-
!!!system-decoration: s1,s2,s3,s4,s5,s6,s7
